X:0474
T:Lochiel's awa to France, but he'll come again.
M:C
L:1/8
Q:1/2=100
I: :| ||
Z:Jack Campin * www.campin.me.uk * 2009
K:A Minor
g|eA A/A/A e2    dc   | BG      G/G/G  Bddg      |eA A/A/A e2      dg |edgB      A/A/A A:|
g|dega     g/a/b ab   | gd      d/d/d  gdde      |dega    (g/a/b) (ab)|ge e/e/e (ge)   eg|
  dega     b/a/g a/g/e|(g/e/)d (e/d/)B gd d(a/b/)|begd     e2     (dg)|BA A/A/A (ge)   e|]

